X: 10532
T: The GLASGOW QUADRILLES No.5.--la Finale.
P: First time pp, second time ff.
%R: march
B: W. Hamilton "Universal Tune-Book" Vol. 1 Glasgow 1844 p.53 #2
S: http://imslp.org/wiki/Hamilton's_Universal_Tune-Book_(Various)
Z: 2016 John Chambers <jc:trillian.mit.edu>
M: 2/4
L: 1/16
K: D
% - - - - - - - - - - - - - - - - - - - - - - - - -
A2 |\
d2dd e2f2 | a4 g2e2 | d2dd B2d2 | A4 F2A2 |\
d2dd e2f2 | a4 (bagf) | e2B2c2A2 | d4 d2 H:|\
[K:G]\
!p!=c2 |\
B2BB c2d2 | e4 (edcB) | A2AA B2^c2 | dgfe d=cBA |
(G2AB) c2B2 | (A2Bc) d2g2 | f2(ed) e2(d^c) | d2(fe) d2=c2 |\
B6 B2 | c2c2 z2B2 | c2B2A2G2 | FDEF GABc |\
d4 c4 | (B>AB>c d2c2) | B4 A4 | "^D.C."G6 |]
% - - - - - - - - - - - - - - - - - - - - - - - - -

%%sep 1 1 500
%%sep 1 1 500

